X:1
T:6 Mélodies, VWV 1133-1137/1176
T:Belle Yoli, VWV 1134
T:A Mademoiselle HAROUEL-GARCIA
T:Pauline Viardot
T:Roger de Beauvoir
T:2. Belle Yoli (VWV 1134) 
T:6 Mélodies
T:Creative Commons copyright waiver (CC0 1.0 Universal)
T:Creative Commons copyright waiver (CC0 1.0 Universal)
T:Creative Commons copyright waiver (CC0 1.0 Universal)
T:Creative Commons copyright waiver (CC0 1.0 Universal)
C:Pauline Viardot
Z:Roger de Beauvoir
Z:Creative Commons copyright waiver (CC0 1.0 Universal)
%%score ( 1 2 ) { 3 | ( 4 5 ) }
L:1/8
Q:1/4=116
M:3/4
K:E
V:1 treble nm="Chant\nVoice"
V:2 treble 
V:3 treble nm="PIANO"
V:4 bass 
V:5 bass 
V:1
"^Allegretto" z6 | z6 | z6 |"^Chant / Voice" z6 |"^gaiement."!mp! B2 B B c B | G4 G2 | G2 B3 c | %7
w: ||||"Voi- ci la Pen- te-|cô te,|Bel- le Yo-|
 F6 | z F G A B c | c2 B4 | G2 A3 F | E4 z!mf! E | (F2 F2 G E | F4 !breath!F2) | G2 E2 G2 | %15
w: \- li,|La fraise est à mi|cô- te|Du bois jo-|\- li. Dè-|ja ro- ses nou-|vel- les|Ont re- fleu-|
 F4- F z |!mf!!<(! F G A2 F c!<)! | (=c4 _E2) | %18
w: \- ri, _|C'est le temps où les|bel- les|
!>(! _A2[Q:1/4=106]"^poco rit." =F2[Q:1/4=96] =G2!>)! |[Q:1/4=116]"^a Tempo"!mf! _A4- A z | z6 | %21
w: Chan- gent d'a-|\- mi. _||
 z6 | z6 | z6 |[Q:1/4=100]"^poco rit."!p! (B2 B B c3/2 B/ | G4 G2) | (!^!G2 !^!B3 c | F4) z2 | %28
w: |||Chan- ge- rez vous comme|el- les,|Bel- le Yo-|li, "|
!f![Q:1/4=116]"^a Tempo" (f2 F) G A c | (c4 !breath!E2) | G2 E2 F2 | E4 z E | F2 !^!F2 G E | %33
w: " Non, je ne veux pas|d'au- tre|Que mon a-|mi. Le|temps chan- ge la|
 F4 F z | !^!G2 !^!^E2 !^!G2 | !^!F6 | z!f!!<(! F G A F c!<)! | (^B4 D2) | %38
w: ro- se,|La fraise aus-|si.|Il chan- ge tou- te|cho- se,|
!ff! G2"^ten."{!fermata!G!fermata!B} !fermata!A3 !fermata!F |[Q:1/4=116]"^a Tempo" E6 | z6 | z6 | %42
w: Mon cœur nen-|ni! "|||
 z6 | z6 | z6 | z6 | z6 |!f! B B B2 c B | G4 !breath!G2 | G2 B3 c | !breath!F6 | %51
w: |||||Sur la har- pe so-|no- re,|Cla- vier tou-|chant,|
 F!<(! G A2 B c!<)! |!>(! c4!>)! G2 | G2 E3 G | !breath!F6 | !^!F2 F F G E | F4 !breath!F2 | %57
w: Va pour moi dire en-|co- re|Cet hum- ble|chant,|Toi dont la voix si|dou- ce|
 G2 B2 G2 | F6 | z (F G A B c | c4 E) z |[Q:1/4=80]"^rit."!<(! G2!<)!!>(! B3!>)! B | e6 | z6 | z6 | %65
w: Vaut, pour mon|cœur,|La bri- se sur la|mou- se,|L'eau sur la|fleur.|||
 z6 |] %66
w: |
V:2
 x6 | x6 | x6 | x6 | x6 | x6 | x6 | x6 | x6 | x6 | x6 | x6 | x6 | x6 | x6 | x6 | x6 | x6 | x6 | %19
 x6 | x6 | x6 | x6 | x6 | x6 | x6 | x6 | x6 | F2 x4 | x6 | x6 | x6 | x6 | x6 | x6 | x6 | x6 | x6 | %38
 x6 | x6 | x6 | x6 | x6 | x6 | x6 | x6 | x6 | x6 | x6 | x6 | x6 | x6 | x6 | x6 | x6 | x6 | x6 | %57
 x6 | x6 | x6 | x6 | x6 | x6 | x6 | x6 | x6 |] %66
V:3
!p![I:staff +1] (E,,/B,,/C,/E,/!<(![I:staff -1] G,/B,/C/E/ G/B/c/e/!<)! | %1
!>(! g/e/c/B/ G/E/C/B,/!>)! G,/[I:staff +1] E,/C,/B,,/) |[I:staff -1] z ([G,E][B,G][G,E][B,G]) z | %3
 z ([G,E][B,G][G,E][B,G]) z | z ([G,E][B,G][G,E][B,G]) z | z ([G,E][B,G][G,E][B,G]) z | %6
 z ([G,E][B,G][G,E][B,G]) z | z ([A,D][CF][A,D][CF]) z | z ([A,D][CF][A,D][CF]) z | %9
 z ([G,E][B,G][G,E][B,G]) z | z ([A,D][CF][A,D][CF]) z | z ([G,E][B,G][G,E][B,G]) z | %12
 ([A,C][B,F][A,C][B,F]) ([G,C][B,E]) | ([A,D][B,F][A,D][B,F][A,D][B,F]) | %14
 ([G,C][B,E][G,C][B,E][G,C][B,E]) | ([F,E][CF][F,E][CF][F,C][CF]) | ([F,D][CF][F,D][CF][F,D][CF]) | %17
 ([_A,_E][=C=F][A,E][CF][A,E][CF]) | ([_A,_E][=C_A] [=B,=F][=DA] [_D=G][_F_B]) | %19
"^a Tempo" ([=C_A][_E=c] [Ec][Ae] [Ae][c_a]) | !>![=G_d=g]2 .[Gd=f].[Gdg].[G_e].[eg] | %21
 !>![_A=c=f]2 .[Ac_e].[Acf].[_Gc].[Gf] | (.[=F_B_d]2 .[_D=GB]2 .[DG=c]2) | %23
!>(! ([=C_A][_E_B][CA][EB][CA]!>)![EB]) | ([=B,G][^^C^A][B,G][CA][B,G][CA]) | %25
 ([^A,G][^^C^A][A,G][CA][A,G][CA]) |!<(! ([B,G][D^A][B,G][EA][B,G][^EA])!<)! | %27
 ([^A,F][=EG][A,F][EG][A,F][EG]) |"^a Tempo" ([=A,D][CF][A,D][CF][A,D][CF]) | %29
 ([G,C][B,E][G,C][B,E][G,C][B,E]) | ([G,C][B,E] [F,C][A,E] [F,C][A,E]) | %31
 ([G,E][B,G][G,E][B,G][G,E][B,G]) | ([A,D][B,F][A,D][B,F] [G,C][B,E]) | %33
 ([A,D][B,F][A,D][B,F][A,D][B,F]) | ([A,=D][B,^E][A,D][B,E][A,D][B,E]) | %35
 ([A,^D][B,F][A,D][B,F][A,D][B,F]) | ([F,C][A,F][F,C][A,F][F,C][A,F]) | %37
 ([G,D][^B,G][G,D][B,G][G,D][B,G]) | [=B,EG]2 [CEA]2 [A,DF]2 |"^a Tempo" [G,E]2 z2 x2 | %40
 !^![DAd]2 .[DAc].[DAd].[DB].[Dd] | !^![EGc]2 .[EGB].[EGc].[=DG].[Gc] | %42
 (.[CFA]2 .[A,=DF]2 .[A,^DG]2) | x6 | x6 | z2 [B,EGB]2 [cegc']2 | z2 [B,EGB]2 [cegc']2 | %47
 z2 [B,EGB]2 [cegc']2 | z2 [B,EGB]2 [cegc']2 | z2 [B,EGB]2 [cegc']2 | z2 [DFB]2 [cfac']2 | %51
 z2 [DFB]2 [cfac']2 | z2 [EGB]2 [cegc']2 | z2 [EGB]2 [cegc']2 | z2 [DFB]2 [cefc']2 | %55
 z !arpeggio![DFB] z !arpeggio![DFB] z !arpeggio![cegc'] | %56
 z !arpeggio![DFB] z !arpeggio![DFB] z !arpeggio![dfac'] | %57
 z !arpeggio![B,EGB] z !arpeggio![EGc] z !arpeggio![cegc'] | %58
 z !arpeggio![DFB] z !arpeggio![FBd] z !arpeggio![Bdf] | %59
 z !arpeggio![EFAc] z !arpeggio![Acef] z !arpeggio![cefac'] | %60
 z !arpeggio![EGc] z !arpeggio![Gce] z !arpeggio![egc'] | %61
 [CEGBc]2 !arpeggio![=D=GB=d]2 !arpeggio![^DABf]2 | %62
!8va(! [ege'][egc'][egb]!8va)![ceg] [GBe][B,GB] | x6 | x6 | z2 [EGe]2 z2 |] %66
V:4
!ped! x2 x4 | z6 |!p! (E,,2 B,,4)!ped-up! | (E,,2 B,,4) | (E,,2 B,,4) | (E,,2 B,,4) | (E,,2 B,,4) | %7
 (E,,2 B,,4) | (E,,2 B,,4) | (E,,2 B,,4) | (E,,2 B,,4) | (E,,2 B,,4) |!ped! [E,,B,,]6!ped-up! | %13
!ped! [E,,B,,]6!ped-up! |!ped! [E,,B,,]6!ped-up! | (^A,,6 | (=A,,6) | (_A,,4) =C,2 | _E,6) | %19
 _A,,2 _E,4 | _A,,_E, _E2!ped! =B,2!ped-up! | _A,,_E, _E2!ped! =A,2!ped-up! | %22
 _A,,_E, _E2!ped! _E,2- | (_A,2!ped-up! =G,2 _G,2 |"^suivez." ^E,6) | =E,6 | (D,2 =D,2 C,2) | %27
 =C,6 |!mf! B,,6- | [E,,B,,]6 | B,,6- | [E,,B,,]4 z2 |!ped! B,,2[K:treble] !^!B2 z2!ped-up! | %33
[K:bass]!ped! B,,2[K:treble] !^!B2 z2!ped-up! |[K:bass]!ped! B,,2[K:treble] !^!B2 z2!ped-up! | %35
[K:bass] B,,2[K:treble] B2 z2 |[K:bass] A,,2!mf!"^cresc." D,4 | G,,2 D,4 | %38
!f! B,,2"^suivez." [B,,F,]2 B,,2 |!ped! (E,,B,,E,B,[I:staff -1] Ee)!ped-up! | %40
[I:staff +1] (E,,B,, B,) z!ped! !wedge!^^F, z!ped-up! | (E,,B,, B,) z!ped! !^![^E,B,] z!ped-up! | %42
 (E,,B,,!ped! B,) z B,,!ped-up! z | %43
!<(!!ped! (E,,B,,/E,/"C2"[I:staff -1] G,/"C1"B,/C/E/ G/"C1"B/c/e/!<)! | %44
!>(! g/e/c/B/"C4" G/E/C/B,/ G,/!>)![I:staff +1] E,/C,/B,,/)!ped-up! | %45
!ped! E,,!mf! z [B,,E,G,]2[I:staff -1] [CEG]2!ped-up! | %46
!ped![I:staff +1] E,, z [B,,E,G,]2[I:staff -1] [CEG]2!ped-up! | %47
!ped![I:staff +1] E,, z [B,,E,G,]2[I:staff -1] [CEG]2!ped-up! | %48
!ped![I:staff +1] E,, z [B,,E,G,]2[I:staff -1] [CEG]2!ped-up! | %49
!ped![I:staff +1] E,, z [B,,E,G,]2[I:staff -1] [CEG]2!ped-up! | %50
!ped![I:staff +1] E,,2 [B,,F,B,]2[I:staff -1] [CFA]2!ped-up! | %51
!ped![I:staff +1] E,,2 [B,,F,B,]2[I:staff -1] [CFA]2!ped-up! | %52
!ped![I:staff +1] E,,2 [E,G,B,]2[I:staff -1] [CEG]2!ped-up! | %53
!ped![I:staff +1] E,,2 [E,G,B,]2!ped!!ped-up![I:staff -1] [^A,CG]2!ped-up! | %54
!ped![I:staff +1] B,,2 [D,F,B,]2[I:staff -1] [^A,CF]2!ped-up! | %55
!ped![I:staff +1] !arpeggio![B,,F,A,B,] z !arpeggio![B,,F,A,B,] z[K:treble] !arpeggio![B,CEG] z!ped-up! | %56
[K:bass]!ped! !arpeggio![B,,F,A,B,] z !arpeggio![B,,F,A,B,] z[K:treble] !arpeggio![DFAc] z!ped-up! | %57
[K:bass]!ped! !arpeggio![B,,E,G,] z !arpeggio![E,G,C] z[K:treble] !arpeggio![CEGc] z!ped-up! | %58
[K:bass]!ped! !arpeggio![D,F,B,] z[I:staff -1] !arpeggio![F,B,D][I:staff +1] z[I:staff -1] !arpeggio![B,DF][I:staff +1] z!ped-up! | %59
!ped! [A,,,A,,] z[I:staff -1] !arpeggio![F,A,CE][I:staff +1] z[I:staff -1] !arpeggio![A,CEF][I:staff +1] z!ped-up! | %60
!ped! [B,,,B,,] z[I:staff -1] !arpeggio![G,CE][I:staff +1] z[I:staff -1] !arpeggio![CEG][I:staff +1] z!ped-up! | %61
!ped! [B,,E,G,B,]2!ped-up!"^suivez."!ped! !arpeggio![B,,=F,=G,B,]2!ped-up!!ped! !arpeggio![B,,D,^F,B,]2!ped-up! | %62
!p! E,,[K:treble] .[EGc].[EGB].[CEG].[B,EG][K:bass] B,, | %63
"^leggiero." (E,,/B,,/E,/G,/[I:staff -1] B,/E/G/B/!8va(! e/g/b/e'/) | %64
 g'/e'/c'/!8va)!B/ g/e/c/B/ G/E/C/B,/ |[I:staff +1] [E,,E,]2 [E,B,]2 z2 |] %66
V:5
 x6 | x6 | x6 | x6 | x6 | x6 | x6 | x6 | x6 | x6 | x6 | x6 | x6 | x6 | x6 | x6 | x6 | x6 | x6 | %19
 x6 | x6 | x6 | x6 | [_A,,_E,]4 z2 | x6 | x6 | x6 | x6 | x6 | x6 | x6 | x6 | x2[K:treble] x4 | %33
[K:bass] x2[K:treble] x4 |[K:bass] x2[K:treble] x4 |[K:bass] x2[K:treble] x4 |[K:bass] x6 | x6 | %38
 x6 | x6 | x6 | x6 | x6 | x6 | x6 | x6 | x6 | x6 | x6 | x6 | x6 | x6 | x6 | x6 | x6 | %55
 x4[K:treble] x2 |[K:bass] x4[K:treble] x2 |[K:bass] x4[K:treble] x2 |[K:bass] x6 | x6 | x6 | x6 | %62
 x[K:treble] x4[K:bass] x | x4!8va(! x2 | x3/2!8va)! x9/2 | x6 |] %66

